X: 40172
T: Timbertown
R: reel
M: 4/4
K: Cmajor
G|:c/d/c Bc AGED|CEGc AcGc|ecgc ageg|fedc BGAB|
c/d/c Bc AGED|CEGc AcGc|ecgc ageg|1 fdBd c2AB:|2 fdBd c2Bc||
[K:G]|:d/e/d ^ce d=cBd|gdBd bgfg|fBcA FADF|ABce d2Bc|
d/e/d ^ce d=cBd|gdBd bgfg|fBcA FADF|1 GBAF G2Bc:|2 GBAF G2G2||

